icons/square/48/jbds.svg

<svg width="48" height="48" version="1.1" viewBox="0 0 48 48.000001" xmlns="http://www.w3.org/2000/svg">
 <defs>
  <linearGradient id="linearGradient4501" x1="-47" x2="-1" y1="2.8779e-15" y2="6.1232e-17" gradientUnits="userSpaceOnUse">
   <stop style="stop-color:#b7261a" offset="0"/>
   <stop style="stop-color:#c8291c" offset="1"/>
  </linearGradient>
 </defs>
 <g transform="translate(0 3.949e-5)">
  <path d="m1 43v0.25c0 2.216 1.784 4 4 4h38c2.216 0 4-1.784 4-4v-0.25c0 2.216-1.784 4-4 4h-38c-2.216 0-4-1.784-4-4zm0 0.5v0.5c0 2.216 1.784 4 4 4h38c2.216 0 4-1.784 4-4v-0.5c0 2.216-1.784 4-4 4h-38c-2.216 0-4-1.784-4-4z" style="opacity:.02"/>
  <path d="m1 43.25v0.25c0 2.216 1.784 4 4 4h38c2.216 0 4-1.784 4-4v-0.25c0 2.216-1.784 4-4 4h-38c-2.216 0-4-1.784-4-4z" style="opacity:.05"/>
  <path d="m1 43v0.25c0 2.216 1.784 4 4 4h38c2.216 0 4-1.784 4-4v-0.25c0 2.216-1.784 4-4 4h-38c-2.216 0-4-1.784-4-4z" style="opacity:.1"/>
 </g>
 <rect transform="rotate(-90)" x="-47" y="1" width="46" height="46" rx="4" style="fill:url(#linearGradient4501)"/>
 <path d="m22.227 1a18 18 0 0 1 0.82617 1.1445 22 22 0 0 0 -11.457 8.8184 4 4 0 0 0 -2.5957 -0.96289 4 4 0 0 0 -4 4 4 4 0 0 0 0.61914 2.127 19 19 0 0 0 -4.6191 2.4316v2.5059a17 17 0 0 1 6.3691 -3.418 4 4 0 0 0 1.2383 0.33008 22 22 0 0 0 -0.60742 5.0234 22 22 0 0 0 0.57422 4.9004 7 7 0 0 0 -2.248 2.0156 18 18 0 0 1 -5.3262 -1.3555v2.1309a20 20 0 0 0 4.3633 1.1094 7 7 0 0 0 -0.36328 2.1992 7 7 0 0 0 7 7 7 7 0 0 0 3.8672 -1.1699 22 22 0 0 0 5.082 3.1699h9.0508a20 20 0 0 1 -1.25 -0.0625 19 19 0 0 0 2.1289 -6.9805 13 13 0 0 0 9.0781 -4.6191 13 13 0 0 0 4.043 0.66211 13 13 0 0 0 3 -0.37305v-2.0547a11 11 0 0 1 -3 0.42773 11 11 0 0 1 -2.8262 -0.38281 13 13 0 0 0 1.7949 -5.7305 5 5 0 0 0 1.0312 0.11328 5 5 0 0 0 3 -1.0078v-1.3535a4 4 0 0 1 -3 1.3613 4 4 0 0 1 -1.0059 -0.13281 13 13 0 0 0 -1.8984 -6.6094 4 4 0 0 1 2.9043 -1.2578 4 4 0 0 1 3 1.3613v-1.3535a5 5 0 0 0 -3 -1.0078 5 5 0 0 0 -3.4668 1.4043 13 13 0 0 0 -4.5352 -3.9316 11 11 0 0 1 7.2246 -3.4453 11 11 0 0 1 0.009766 0 20 20 0 0 1 3.7676 4.4707v-3.4004a22 22 0 0 0 -0.71875 -0.85352 11 11 0 0 1 0.71875 0.18945v-2.0664a13 13 0 0 0 -3 -0.36719 13 13 0 0 0 -0.056641 0.0019531 22 22 0 0 0 -13.943 -5.002 22 22 0 0 0 -4.9551 0.58789 20 20 0 0 0 -0.40039 -0.58789h-2.418zm7.7734 42h9.0703a22 22 0 0 0 7.9297 -6.0918v-3.4414a20 20 0 0 1 -17 9.5332zm0-40a20 20 0 0 1 11.059 3.3516 13 13 0 0 0 -7.0156 4.3105 13 13 0 0 0 -4.043 -0.66211 13 13 0 0 0 -2.0898 0.18555 20 20 0 0 0 -1.873 -6.7676 20 20 0 0 1 3.9629 -0.41797zm-5.9219 0.91797a18 18 0 0 1 1.8691 6.7402 13 13 0 0 0 -7.0664 5.6309 19 19 0 0 0 -6.0176 -1.2598 4 4 0 0 0 0.13672 -1.0293 4 4 0 0 0 -0.18164 -1.1914 20 20 0 0 1 11.26 -8.8906zm-15.078 7.082a3 3 0 0 1 2.0742 0.83594 22 22 0 0 0 -1.6348 3.3594 19 19 0 0 0 -2.8398 0.59766 3 3 0 0 1 -0.59961 -1.793 3 3 0 0 1 3 -3zm21 1a11 11 0 0 1 2.8262 0.38281 13 13 0 0 0 -1.7949 5.7305 5 5 0 0 0 -1.0312 -0.11328 5 5 0 0 0 -3.4023 1.3457 20 20 0 0 0 1.3945 -7.1543 11 11 0 0 1 2.0078 -0.19141zm-4.0391 0.77148a18 18 0 0 1 -1.6484 6.7871 19 19 0 0 0 -3.5957 -2.4355 11 11 0 0 1 5.2441 -4.3516zm8.7773 0.31641a11 11 0 0 1 4.5977 4.1094 5 5 0 0 0 -0.33594 1.8027 5 5 0 0 0 2 3.9922 11 11 0 0 1 0 0.007812 11 11 0 0 1 -1.7383 5.9121 11 11 0 0 1 -4.5977 -4.1094 5 5 0 0 0 0.33594 -1.8027 5 5 0 0 0 -2 -3.9922 11 11 0 0 1 0 -0.007812 11 11 0 0 1 1.7383 -5.9121zm-22.77 1.3184a3 3 0 0 1 -0.14844 0.60352 19 19 0 0 0 -0.14844 0.005859 20 20 0 0 1 0.29688 -0.60938zm0.03125 2.5938a17 17 0 0 1 5.9668 1.1035 13 13 0 0 0 -0.9668 4.8965 13 13 0 0 0 0.69727 4.1621 18 18 0 0 1 -1.8281 1.0117 7 7 0 0 0 -3.8691 -1.1738 7 7 0 0 0 -1.5352 0.17578 20 20 0 0 1 -0.46484 -4.1758 20 20 0 0 1 0.76758 -5.418 4 4 0 0 0 0.85742 -0.56836 17 17 0 0 1 0.375 -0.013672zm28.031 1.5215a11 11 0 0 1 0.85352 2.9863 4 4 0 0 1 -0.88477 -2.5078 4 4 0 0 1 0.03125 -0.47852zm-20.232 0.39062a17 17 0 0 1 3.5469 2.4531 18 18 0 0 1 -3.9512 4.5547 11 11 0 0 1 -0.39453 -2.9199 11 11 0 0 1 0.79883 -4.0879zm10.201 0.087891a4 4 0 0 1 1.0059 0.13281 13 13 0 0 0 1.8984 6.6094 4 4 0 0 1 -2.9043 1.2578 4 4 0 0 1 -0.36133 -0.017578 19 19 0 0 0 -3.3457 -5.4785 4 4 0 0 1 3.707 -2.5039zm3.1152 1.4922a4 4 0 0 1 0.88477 2.5078 4 4 0 0 1 -0.03125 0.47852 11 11 0 0 1 -0.85352 -2.9863zm-8.3145 2.3555a17 17 0 0 1 0.20312 0.23047 5 5 0 0 0 2.6465 4.3301 17 17 0 0 1 1.3477 6.541 11 11 0 0 1 -8.8574 -6.0859 20 20 0 0 0 4.6602 -5.0156zm8.666 3.748a13 13 0 0 0 4.5352 3.9316 11 11 0 0 1 -7.0039 3.418 19 19 0 0 0 -0.98633 -5.9453 5 5 0 0 0 3.4551 -1.4043zm-21.494 2.4043a5 5 0 0 1 0.027344 0 5 5 0 0 1 1.3086 0.17969 18 18 0 0 1 -2.127 0.53125 20 20 0 0 1 -0.20117 -0.60156 5 5 0 0 1 0.99219 -0.10938zm6.5078 0.003906a13 13 0 0 0 10.398 6.9395 17 17 0 0 1 -2.2891 6.7441 20 20 0 0 1 -9.2246 -4.2012 7 7 0 0 0 1.6348 -4.4863 7 7 0 0 0 -1.5488 -4.3828 20 20 0 0 0 1.0293 -0.61328zm-9.3477 0.9082a22 22 0 0 0 0.017578 0.046875 18 18 0 0 1 -0.087891 0.003907 5 5 0 0 1 0.070312 -0.050782zm6.4375 0.58984a5 5 0 0 1 1.4297 3.498 5 5 0 0 1 -1.1191 3.1465 20 20 0 0 1 -3.916 -5.543 20 20 0 0 0 3.6055 -1.1016zm-5.6699 1.4023a22 22 0 0 0 4.4336 6.5137 5 5 0 0 1 -2.334 0.58203 5 5 0 0 1 -5 -5 5 5 0 0 1 0.42969 -2.0195 20 20 0 0 0 0.57031 0.019531 20 20 0 0 0 1.9004 -0.095703z" style="fill-rule:evenodd;opacity:.1;paint-order:normal"/>
 <path d="m22.949 1a18 18 0 0 1 0.10352 0.14453 22 22 0 0 0 -11.457 8.8184 4 4 0 0 0 -2.5957 -0.96289 4 4 0 0 0 -4 4 4 4 0 0 0 0.61914 2.127 19 19 0 0 0 -4.6191 2.4316v2.5059a17 17 0 0 1 6.3691 -3.418 4 4 0 0 0 1.2383 0.33008 22 22 0 0 0 -0.60742 5.0234 22 22 0 0 0 0.57422 4.9004 7 7 0 0 0 -2.248 2.0156 18 18 0 0 1 -5.3262 -1.3555v2.1309a20 20 0 0 0 4.3633 1.1094 7 7 0 0 0 -0.36328 2.1992 7 7 0 0 0 7 7 7 7 0 0 0 3.8672 -1.1699 22 22 0 0 0 9.4941 4.6484 17 17 0 0 1 -3.748 3.5215h3.1719a19 19 0 0 0 2.793 -3.1602 22 22 0 0 0 2.4219 0.16016 22 22 0 0 0 17 -8.0918v-3.4414a20 20 0 0 1 -17 9.5332 20 20 0 0 1 -1.25 -0.0625 19 19 0 0 0 2.1289 -6.9805 13 13 0 0 0 9.0781 -4.6191 13 13 0 0 0 4.043 0.66211 13 13 0 0 0 3 -0.37305v-2.0547a11 11 0 0 1 -3 0.42773 11 11 0 0 1 -2.8262 -0.38281 13 13 0 0 0 1.7949 -5.7305 5 5 0 0 0 1.0312 0.11328 5 5 0 0 0 3 -1.0078v-1.3535a4 4 0 0 1 -3 1.3613 4 4 0 0 1 -1.0059 -0.13281 13 13 0 0 0 -1.8984 -6.6094 4 4 0 0 1 2.9043 -1.2578 4 4 0 0 1 3 1.3613v-1.3535a5 5 0 0 0 -3 -1.0078 5 5 0 0 0 -3.4668 1.4043 13 13 0 0 0 -4.5352 -3.9316 11 11 0 0 1 7.2246 -3.4453 11 11 0 0 1 0.009766 0 20 20 0 0 1 3.7676 4.4707v-3.4004a22 22 0 0 0 -0.71875 -0.85352 11 11 0 0 1 0.71875 0.18945v-2.0664a13 13 0 0 0 -3 -0.36719 13 13 0 0 0 -0.056641 0.0019531 22 22 0 0 0 -7.4492 -4.002h-13.545zm7.0508 1a20 20 0 0 1 11.059 3.3516 13 13 0 0 0 -7.0156 4.3105 13 13 0 0 0 -4.043 -0.66211 13 13 0 0 0 -2.0898 0.18555 20 20 0 0 0 -1.873 -6.7676 20 20 0 0 1 3.9629 -0.41797zm-5.9219 0.91797a18 18 0 0 1 1.8691 6.7402 13 13 0 0 0 -7.0664 5.6309 19 19 0 0 0 -6.0176 -1.2598 4 4 0 0 0 0.13672 -1.0293 4 4 0 0 0 -0.18164 -1.1914 20 20 0 0 1 11.26 -8.8906zm-15.078 7.082a3 3 0 0 1 2.0742 0.83594 22 22 0 0 0 -1.6348 3.3594 19 19 0 0 0 -2.8398 0.59766 3 3 0 0 1 -0.59961 -1.793 3 3 0 0 1 3 -3zm21 1a11 11 0 0 1 2.8262 0.38281 13 13 0 0 0 -1.7949 5.7305 5 5 0 0 0 -1.0312 -0.11328 5 5 0 0 0 -3.4023 1.3457 20 20 0 0 0 1.3945 -7.1543 11 11 0 0 1 2.0078 -0.19141zm-4.0391 0.77148a18 18 0 0 1 -1.6484 6.7871 19 19 0 0 0 -3.5957 -2.4355 11 11 0 0 1 5.2441 -4.3516zm8.7773 0.31641a11 11 0 0 1 4.5977 4.1094 5 5 0 0 0 -0.33594 1.8027 5 5 0 0 0 2 3.9922 11 11 0 0 1 0 0.007812 11 11 0 0 1 -1.7383 5.9121 11 11 0 0 1 -4.5977 -4.1094 5 5 0 0 0 0.33594 -1.8027 5 5 0 0 0 -2 -3.9922 11 11 0 0 1 0 -0.007812 11 11 0 0 1 1.7383 -5.9121zm-22.77 1.3184a3 3 0 0 1 -0.14844 0.60352 19 19 0 0 0 -0.14844 0.005859 20 20 0 0 1 0.29688 -0.60938zm0.03125 2.5938a17 17 0 0 1 5.9668 1.1035 13 13 0 0 0 -0.9668 4.8965 13 13 0 0 0 0.69727 4.1621 18 18 0 0 1 -1.8281 1.0117 7 7 0 0 0 -3.8691 -1.1738 7 7 0 0 0 -1.5352 0.17578 20 20 0 0 1 -0.46484 -4.1758 20 20 0 0 1 0.76758 -5.418 4 4 0 0 0 0.85742 -0.56836 17 17 0 0 1 0.375 -0.013672zm28.031 1.5215a11 11 0 0 1 0.85352 2.9863 4 4 0 0 1 -0.88477 -2.5078 4 4 0 0 1 0.03125 -0.47852zm-20.232 0.39062a17 17 0 0 1 3.5469 2.4531 18 18 0 0 1 -3.9512 4.5547 11 11 0 0 1 -0.39453 -2.9199 11 11 0 0 1 0.79883 -4.0879zm10.201 0.087891a4 4 0 0 1 1.0059 0.13281 13 13 0 0 0 1.8984 6.6094 4 4 0 0 1 -2.9043 1.2578 4 4 0 0 1 -0.36133 -0.017578 19 19 0 0 0 -3.3457 -5.4785 4 4 0 0 1 3.707 -2.5039zm3.1152 1.4922a4 4 0 0 1 0.88477 2.5078 4 4 0 0 1 -0.03125 0.47852 11 11 0 0 1 -0.85352 -2.9863zm-8.3145 2.3555a17 17 0 0 1 0.20312 0.23047 5 5 0 0 0 2.6465 4.3301 17 17 0 0 1 1.3477 6.541 11 11 0 0 1 -8.8574 -6.0859 20 20 0 0 0 4.6602 -5.0156zm8.666 3.748a13 13 0 0 0 4.5352 3.9316 11 11 0 0 1 -7.0039 3.418 19 19 0 0 0 -0.98633 -5.9453 5 5 0 0 0 3.4551 -1.4043zm-21.494 2.4043a5 5 0 0 1 0.027344 0 5 5 0 0 1 1.3086 0.17969 18 18 0 0 1 -2.127 0.53125 20 20 0 0 1 -0.20117 -0.60156 5 5 0 0 1 0.99219 -0.10938zm6.5078 0.003906a13 13 0 0 0 10.398 6.9395 17 17 0 0 1 -2.2891 6.7441 20 20 0 0 1 -9.2246 -4.2012 7 7 0 0 0 1.6348 -4.4863 7 7 0 0 0 -1.5488 -4.3828 20 20 0 0 0 1.0293 -0.61328zm-9.3477 0.9082a22 22 0 0 0 0.017578 0.046875 18 18 0 0 1 -0.087891 0.003907 5 5 0 0 1 0.070312 -0.050782zm6.4375 0.58984a5 5 0 0 1 1.4297 3.498 5 5 0 0 1 -1.1191 3.1465 20 20 0 0 1 -3.916 -5.543 20 20 0 0 0 3.6055 -1.1016zm-5.6699 1.4023a22 22 0 0 0 4.4336 6.5137 5 5 0 0 1 -2.334 0.58203 5 5 0 0 1 -5 -5 5 5 0 0 1 0.42969 -2.0195 20 20 0 0 0 0.57031 0.019531 20 20 0 0 0 1.9004 -0.095703z" style="fill-rule:evenodd;fill:#f9f9f9;paint-order:normal"/>
 <g transform="translate(0 3.949e-5)">
  <g transform="translate(0 -1004.4)">
   <path d="m1 1043.4v4c0 2.216 1.784 4 4 4h38c2.216 0 4-1.784 4-4v-4c0 2.216-1.784 4-4 4h-38c-2.216 0-4-1.784-4-4z" style="opacity:.1"/>
  </g>
 </g>
</svg>

<svg width="48" height="48" viewBox="0 0 48 48.000001" xmlns="http://www.w3.org/2000/svg">
  <defs>
    <linearGradient id="a" x1="-47" x2="-1" gradientUnits="userSpaceOnUse">
      <stop offset="0" stop-color="#b7261a"/>
      <stop offset="1" stop-color="#c8291c"/>
    </linearGradient>
  </defs>
  <path d="M1 43v.25c0 2.216 1.784 4 4 4h38c2.216 0 4-1.784 4-4V43c0 2.216-1.784 4-4 4H5c-2.216 0-4-1.784-4-4zm0 .5v.5c0 2.216 1.784 4 4 4h38c2.216 0 4-1.784 4-4v-.5c0 2.216-1.784 4-4 4H5c-2.216 0-4-1.784-4-4z" opacity=".02"/>
  <path d="M1 43.25v.25c0 2.216 1.784 4 4 4h38c2.216 0 4-1.784 4-4v-.25c0 2.216-1.784 4-4 4H5c-2.216 0-4-1.784-4-4z" opacity=".05"/>
  <path d="M1 43v.25c0 2.216 1.784 4 4 4h38c2.216 0 4-1.784 4-4V43c0 2.216-1.784 4-4 4H5c-2.216 0-4-1.784-4-4z" opacity=".1"/>
  <rect transform="rotate(-90)" x="-47" y="1" width="46" height="46" rx="4" fill="url(#a)"/>
  <path d="M22.227 1a18 18 0 0 1 .826 1.145 22 22 0 0 0-11.457 8.818A4 4 0 0 0 9 10a4 4 0 0 0-4 4 4 4 0 0 0 .62 2.127A19 19 0 0 0 1 18.559v2.506a17 17 0 0 1 6.37-3.418 4 4 0 0 0 1.238.33A22 22 0 0 0 8 23a22 22 0 0 0 .575 4.9 7 7 0 0 0-2.248 2.016A18 18 0 0 1 1 28.56v2.131a20 20 0 0 0 4.363 1.11A7 7 0 0 0 5 34a7 7 0 0 0 7 7 7 7 0 0 0 3.867-1.17A22 22 0 0 0 20.95 43H30a20 20 0 0 1-1.25-.063 19 19 0 0 0 2.13-6.98 13 13 0 0 0 9.078-4.62A13 13 0 0 0 44 32a13 13 0 0 0 3-.373v-2.055A11 11 0 0 1 44 30a11 11 0 0 1-2.827-.383 13 13 0 0 0 1.795-5.73A5 5 0 0 0 44 24a5 5 0 0 0 3-1.008V21.64A4 4 0 0 1 44 23a4 4 0 0 1-1.005-.133 13 13 0 0 0-1.899-6.61A4 4 0 0 1 44 15a4 4 0 0 1 3 1.361v-1.353A5 5 0 0 0 44 14a5 5 0 0 0-3.466 1.404 13 13 0 0 0-4.536-3.931 11 11 0 0 1 7.225-3.446 11 11 0 0 1 .01 0A20 20 0 0 1 47 12.498v-3.4a22 22 0 0 0-.718-.854 11 11 0 0 1 .718.19V6.367A13 13 0 0 0 44 6a13 13 0 0 0-.056.002A22 22 0 0 0 30 1a22 22 0 0 0-4.955.588 20 20 0 0 0-.4-.588h-2.419zM30 43h9.07A22 22 0 0 0 47 36.908v-3.441A20 20 0 0 1 30 43zm0-40a20 20 0 0 1 11.06 3.352 13 13 0 0 0-7.016 4.31A13 13 0 0 0 30 10a13 13 0 0 0-2.09.186 20 20 0 0 0-1.873-6.768A20 20 0 0 1 30.001 3zm-5.922.918a18 18 0 0 1 1.87 6.74 13 13 0 0 0-7.067 5.631 19 19 0 0 0-6.017-1.26A4 4 0 0 0 13 14a4 4 0 0 0-.181-1.191 20 20 0 0 1 11.26-8.891zM9 11a3 3 0 0 1 2.075.836 22 22 0 0 0-1.635 3.36 19 19 0 0 0-2.84.597A3 3 0 0 1 6 14a3 3 0 0 1 3-3zm21 1a11 11 0 0 1 2.827.383 13 13 0 0 0-1.795 5.73A5 5 0 0 0 30 18a5 5 0 0 0-3.403 1.346 20 20 0 0 0 1.395-7.155A11 11 0 0 1 30 12zm-4.039.771a18 18 0 0 1-1.648 6.788 19 19 0 0 0-3.596-2.436 11 11 0 0 1 5.244-4.352zm8.778.317a11 11 0 0 1 4.597 4.11A5 5 0 0 0 39 19a5 5 0 0 0 2 3.992A11 11 0 0 1 41 23a11 11 0 0 1-1.738 5.912 11 11 0 0 1-4.598-4.11A5 5 0 0 0 35 23a5 5 0 0 0-2-3.992A11 11 0 0 1 33 19a11 11 0 0 1 1.739-5.912zm-22.77 1.318a3 3 0 0 1-.149.604 19 19 0 0 0-.148.006 20 20 0 0 1 .297-.61zm.03 2.594a17 17 0 0 1 5.968 1.104A13 13 0 0 0 17 23a13 13 0 0 0 .697 4.162 18 18 0 0 1-1.828 1.012A7 7 0 0 0 12 27a7 7 0 0 0-1.535.176A20 20 0 0 1 10 23a20 20 0 0 1 .768-5.418 4 4 0 0 0 .857-.568A17 17 0 0 1 12 17zm28.032 1.522a11 11 0 0 1 .853 2.986A4 4 0 0 1 40 19a4 4 0 0 1 .03-.478zm-20.232.39a17 17 0 0 1 3.547 2.453 18 18 0 0 1-3.951 4.555A11 11 0 0 1 19 23a11 11 0 0 1 .799-4.088zm10.2.088a4 4 0 0 1 1.007.133 13 13 0 0 0 1.898 6.61A4 4 0 0 1 30 27a4 4 0 0 1-.361-.017 19 19 0 0 0-3.346-5.479A4 4 0 0 1 30 19zm3.116 1.492A4 4 0 0 1 34 23a4 4 0 0 1-.031.479 11 11 0 0 1-.854-2.987zm-8.314 2.356a17 17 0 0 1 .203.23 5 5 0 0 0 2.646 4.33 17 17 0 0 1 1.348 6.541 11 11 0 0 1-8.857-6.086 20 20 0 0 0 4.66-5.015zm8.666 3.748a13 13 0 0 0 4.535 3.931 11 11 0 0 1-7.004 3.418A19 19 0 0 0 30.012 28a5 5 0 0 0 3.455-1.404zM11.973 29A5 5 0 0 1 12 29a5 5 0 0 1 1.309.18 18 18 0 0 1-2.127.531 20 20 0 0 1-.202-.602 5 5 0 0 1 .993-.109zm6.507.004a13 13 0 0 0 10.398 6.94 17 17 0 0 1-2.289 6.744 20 20 0 0 1-9.224-4.202A7 7 0 0 0 19 34a7 7 0 0 0-1.55-4.383 20 20 0 0 0 1.03-.613zm-9.347.908a22 22 0 0 0 .017.047 18 18 0 0 1-.088.004 5 5 0 0 1 .07-.05zm6.437.59A5 5 0 0 1 17 34a5 5 0 0 1-1.12 3.147 20 20 0 0 1-3.915-5.543 20 20 0 0 0 3.605-1.102zM9.9 31.904a22 22 0 0 0 4.434 6.514A5 5 0 0 1 12 39a5 5 0 0 1-5-5 5 5 0 0 1 .43-2.02A20 20 0 0 0 8 32a20 20 0 0 0 1.9-.096z" fill-rule="evenodd" opacity=".1"/>
  <path d="M22.949 1a18 18 0 0 1 .104.145 22 22 0 0 0-11.457 8.818A4 4 0 0 0 9 9a4 4 0 0 0-4 4 4 4 0 0 0 .619 2.127 19 19 0 0 0-4.62 2.432v2.506a17 17 0 0 1 6.37-3.418 4 4 0 0 0 1.238.33A22 22 0 0 0 8 22a22 22 0 0 0 .574 4.9 7 7 0 0 0-2.248 2.016A18 18 0 0 1 1 27.561v2.13a20 20 0 0 0 4.363 1.11A7 7 0 0 0 5 33a7 7 0 0 0 7 7 7 7 0 0 0 3.867-1.17 22 22 0 0 0 9.494 4.649A17 17 0 0 1 21.613 47h3.172a19 19 0 0 0 2.793-3.16A22 22 0 0 0 30 44a22 22 0 0 0 17-8.092v-3.441A20 20 0 0 1 30 42a20 20 0 0 1-1.25-.063 19 19 0 0 0 2.129-6.98 13 13 0 0 0 9.078-4.62A13 13 0 0 0 44 31a13 13 0 0 0 3-.373v-2.055A11 11 0 0 1 44 29a11 11 0 0 1-2.826-.383 13 13 0 0 0 1.795-5.73 5 5 0 0 0 1.03.113 5 5 0 0 0 3-1.008V20.64a4 4 0 0 1-3 1.36 4 4 0 0 1-1.005-.132 13 13 0 0 0-1.898-6.61A4 4 0 0 1 44 14a4 4 0 0 1 3 1.361v-1.353A5 5 0 0 0 44 13a5 5 0 0 0-3.467 1.404 13 13 0 0 0-4.535-3.931 11 11 0 0 1 7.224-3.446 11 11 0 0 1 .01 0A20 20 0 0 1 47 11.498v-3.4a22 22 0 0 0-.719-.854 11 11 0 0 1 .719.19V5.367A13 13 0 0 0 44 5a13 13 0 0 0-.057.002A22 22 0 0 0 36.494 1H22.949zm7.05 1a20 20 0 0 1 11.06 3.352 13 13 0 0 0-7.016 4.31A13 13 0 0 0 30 9a13 13 0 0 0-2.09.186 20 20 0 0 0-1.873-6.768A20 20 0 0 1 30 2zm-5.921.918a18 18 0 0 1 1.869 6.74 13 13 0 0 0-7.066 5.631 19 19 0 0 0-6.018-1.26A4 4 0 0 0 13 13a4 4 0 0 0-.182-1.191 20 20 0 0 1 11.26-8.891zM9 10a3 3 0 0 1 2.074.836 22 22 0 0 0-1.635 3.36 19 19 0 0 0-2.84.597A3 3 0 0 1 6 13a3 3 0 0 1 3-3zm21 1a11 11 0 0 1 2.826.383 13 13 0 0 0-1.795 5.73A5 5 0 0 0 30 17a5 5 0 0 0-3.402 1.346 20 20 0 0 0 1.394-7.155A11 11 0 0 1 30 11zm-4.04.771a18 18 0 0 1-1.648 6.788 19 19 0 0 0-3.595-2.436 11 11 0 0 1 5.244-4.352zm8.778.317a11 11 0 0 1 4.598 4.11A5 5 0 0 0 39 18a5 5 0 0 0 2 3.992A11 11 0 0 1 41 22a11 11 0 0 1-1.738 5.912 11 11 0 0 1-4.598-4.11A5 5 0 0 0 35 22a5 5 0 0 0-2-3.992A11 11 0 0 1 33 18a11 11 0 0 1 1.738-5.912zm-22.77 1.318a3 3 0 0 1-.148.604 19 19 0 0 0-.149.006 20 20 0 0 1 .297-.61zM12 16a17 17 0 0 1 5.967 1.104A13 13 0 0 0 17 22a13 13 0 0 0 .698 4.162 18 18 0 0 1-1.828 1.012A7 7 0 0 0 11.999 26a7 7 0 0 0-1.535.176A20 20 0 0 1 10 22a20 20 0 0 1 .768-5.418 4 4 0 0 0 .857-.568A17 17 0 0 1 12 16zm28.031 1.522a11 11 0 0 1 .854 2.986A4 4 0 0 1 39.999 18a4 4 0 0 1 .031-.478zm-20.232.39a17 17 0 0 1 3.547 2.453 18 18 0 0 1-3.95 4.555A11 11 0 0 1 19 22a11 11 0 0 1 .798-4.088zM30 18a4 4 0 0 1 1.006.133 13 13 0 0 0 1.899 6.61A4 4 0 0 1 29.999 26a4 4 0 0 1-.361-.017 19 19 0 0 0-3.346-5.479A4 4 0 0 1 30 18zm3.116 1.492A4 4 0 0 1 33.999 22a4 4 0 0 1-.03.479 11 11 0 0 1-.854-2.987zM24.8 21.848a17 17 0 0 1 .203.23 5 5 0 0 0 2.647 4.33 17 17 0 0 1 1.347 6.541 11 11 0 0 1-8.857-6.086 20 20 0 0 0 4.66-5.015zm8.666 3.748a13 13 0 0 0 4.535 3.931 11 11 0 0 1-7.004 3.418A19 19 0 0 0 30.011 27a5 5 0 0 0 3.455-1.404zM11.972 28a5 5 0 0 1 .027 0 5 5 0 0 1 1.309.18 18 18 0 0 1-2.127.531 20 20 0 0 1-.201-.602 5 5 0 0 1 .992-.109zm6.508.004a13 13 0 0 0 10.398 6.94 17 17 0 0 1-2.29 6.744 20 20 0 0 1-9.224-4.202A7 7 0 0 0 19 33a7 7 0 0 0-1.549-4.383 20 20 0 0 0 1.03-.613zm-9.348.908a22 22 0 0 0 .018.047 18 18 0 0 1-.088.004 5 5 0 0 1 .07-.05zm6.438.59A5 5 0 0 1 17 33a5 5 0 0 1-1.12 3.147 20 20 0 0 1-3.916-5.543 20 20 0 0 0 3.606-1.102zM9.9 30.904a22 22 0 0 0 4.433 6.514A5 5 0 0 1 12 38a5 5 0 0 1-5-5 5 5 0 0 1 .43-2.02 20 20 0 0 0 .57.02 20 20 0 0 0 1.9-.096z" fill-rule="evenodd" fill="#f9f9f9"/>
  <g>
    <path d="M1 39v4c0 2.216 1.784 4 4 4h38c2.216 0 4-1.784 4-4v-4c0 2.216-1.784 4-4 4H5c-2.216 0-4-1.784-4-4z" opacity=".1"/>
  </g>
</svg>
